contributed-vectors/juno.svg

<svg xmlns="http://www.w3.org/2000/svg" xmlns:xlink="http://www.w3.org/1999/xlink" viewBox="0 0 192 192"><defs><linearGradient id="a"><stop offset="0" style="stop-color:#9abeff;stop-opacity:1"/><stop offset="1" style="stop-color:#8c72bd;stop-opacity:1"/></linearGradient><linearGradient xlink:href="#a" id="b" x1="32" x2="160" y1="32" y2="160" gradientUnits="userSpaceOnUse"/></defs><rect width="152" height="152" x="20" y="20" rx="10" style="fill-opacity:1;fill:url(#b);stroke:none;opacity:1;stroke-linecap:round;stroke-linejoin:round;isolation:isolate"/><path d="M96 52v12c11.08 0 20 8.92 20 20v24c0 11.08-8.92 20-20 20s-20-8.92-20-20v-8H64v8c0 17.728 14.272 32 32 32s32-14.272 32-32V84c0-17.728-14.272-32-32-32z" style="opacity:1;vector-effect:none;fill:#fff;fill-opacity:1;fill-rule:evenodd;stroke:none;stroke-width:1px;stroke-linecap:butt;stroke-linejoin:miter;stroke-miterlimit:4;stroke-dasharray:none;stroke-dashoffset:0;stroke-opacity:1;paint-order:stroke fill markers"/></svg>

<?xml version="1.0" encoding="UTF-8" standalone="no"?>
<svg
   xmlns:dc="http://purl.org/dc/elements/1.1/"
   xmlns:cc="http://creativecommons.org/ns#"
   xmlns:rdf="http://www.w3.org/1999/02/22-rdf-syntax-ns#"
   xmlns:svg="http://www.w3.org/2000/svg"
   xmlns="http://www.w3.org/2000/svg"
   xmlns:xlink="http://www.w3.org/1999/xlink"
   xmlns:sodipodi="http://sodipodi.sourceforge.net/DTD/sodipodi-0.dtd"
   xmlns:inkscape="http://www.inkscape.org/namespaces/inkscape"
   viewBox="0 0 192 192"
   version="1.1"
   id="svg16"
   sodipodi:docname="juno.svg"
   inkscape:version="0.92.4 (5da689c313, 2019-01-14)">
  <metadata
     id="metadata20">
    <rdf:RDF>
      <cc:Work
         rdf:about="">
        <dc:format>image/svg+xml</dc:format>
        <dc:type
           rdf:resource="http://purl.org/dc/dcmitype/StillImage" />
        <dc:title />
      </cc:Work>
    </rdf:RDF>
  </metadata>
  <sodipodi:namedview
     pagecolor="#ffffff"
     bordercolor="#666666"
     borderopacity="1"
     objecttolerance="10"
     gridtolerance="10"
     guidetolerance="10"
     inkscape:pageopacity="0"
     inkscape:pageshadow="2"
     inkscape:window-width="1920"
     inkscape:window-height="1017"
     id="namedview18"
     showgrid="true"
     inkscape:zoom="6.9532166"
     inkscape:cx="71.392988"
     inkscape:cy="102.73552"
     inkscape:window-x="-8"
     inkscape:window-y="-8"
     inkscape:window-maximized="1"
     inkscape:current-layer="svg16">
    <inkscape:grid
       type="xygrid"
       id="grid827"
       spacingx="4"
       spacingy="4" />
  </sodipodi:namedview>
  <defs
     id="defs4">
    <linearGradient
       inkscape:collect="always"
       id="linearGradient838">
      <stop
         style="stop-color:#9abeff;stop-opacity:1"
         offset="0"
         id="stop834" />
      <stop
         style="stop-color:#8c72bd;stop-opacity:1"
         offset="1"
         id="stop836" />
    </linearGradient>
    <style
       id="style2">.a{fill:none;stroke:#b1b5bd;stroke-linecap:round;stroke-linejoin:round;isolation:isolate;opacity:0.63;}</style>
    <linearGradient
       inkscape:collect="always"
       xlink:href="#linearGradient838"
       id="linearGradient840"
       x1="32"
       y1="32"
       x2="160"
       y2="160"
       gradientUnits="userSpaceOnUse" />
  </defs>
  <rect
     class="a"
     x="20"
     y="20"
     width="152"
     height="152"
     rx="10"
     id="rect6"
     style="fill-opacity:1;fill:url(#linearGradient840);stroke:none;opacity:1" />
  <path
     style="opacity:1;vector-effect:none;fill:#ffffff;fill-opacity:1;fill-rule:evenodd;stroke:none;stroke-width:1px;stroke-linecap:butt;stroke-linejoin:miter;stroke-miterlimit:4;stroke-dasharray:none;stroke-dashoffset:0;stroke-opacity:1;paint-order:stroke fill markers"
     d="M 96 52 L 96 64 C 107.08 64 116 72.92 116 84 L 116 108 C 116 119.08 107.08 128 96 128 C 84.92 128 76 119.08 76 108 L 76 100 L 64 100 L 64 108 C 64 125.728 78.272 140 96 140 C 113.728 140 128 125.728 128 108 L 128 84 C 128 66.272 113.728 52 96 52 z "
     id="rect822" />
</svg>
